.local/share/icons/Gruvbox-Plus-Dark/status/symbolic/network-wireless-no-route-symbolic.svg

<svg width="16" height="16" version="1.1" xmlns="http://www.w3.org/2000/svg">
  <defs>
    <style id="current-color-scheme" type="text/css">.ColorScheme-Text { color:#ebdbb2; } .ColorScheme-Highlight { color:#458588; } .ColorScheme-NeutralText { color:#fe8019; } .ColorScheme-PositiveText { color:#689d6a; } .ColorScheme-NegativeText { color:#fb4934; }</style>
  </defs>
  <path class="ColorScheme-Text" d="m8 2c-3.051 0-5.919 1.073-8 3l8 9 8-9c-2.081-1.927-4.949-3-8-3zm0 2c1.11 0 2 0.9 2 2 0 1.11-0.89 2-2 2v1h-1v-2h1c0.56 0 1-0.44 1-1 0-0.55-0.44-1-1-1-0.55 0-1 0.45-1 1h-1c0-1.1 0.9-2 2-2zm-1 6h1v1h-1z" fill="currentColor"/>
</svg>

<svg xmlns="http://www.w3.org/2000/svg" width="16" height="16" version="1.1">
 <path style="fill:#ebdbb2" d="M 8,1 C 4.9494,1 2.0806,2.0732 0,4 L 8,15 16,4 C 13.919,2.0731 11.051,1 8,1 Z m 0,3 c 1.11,0 2,0.9 2,2 0,1.11 -0.89,2 -2,2 V 9 H 7 V 7 H 8 C 8.56,7 9,6.56 9,6 9,5.45 8.56,5 8,5 7.45,5 7,5.45 7,6 H 6 C 6,4.9 6.9,4 8,4 Z m -1,6 h 1 v 1 H 7 Z"/>
</svg>
